X: 7909
T:the Tarbolton Reel
R:Reel
O:Ireland
M:4/4
K:EDor
E2eB e2BA|GBAF AGEF|D2dc d2AG|FDAG FDDF|\
EBed efge|fedf edBA|GABG FGA=c|BGAF GEE2::\
g/a/g/f/ ef (3gfe be|(3gfe be gfec|\
(3ddd fd adfd|(3Bcd AG FDDF|\
(3GGG BG (3FFF AF|EG ef gfed|\
B2 (3dcB AFA=c|BGAF GEE2:|
